source/_includes/svg/logo--dacs.svg

<svg class="logo" xmlns="http://www.w3.org/2000/svg" width="125" height="36" viewBox="0 0 1250 360">
    <path d="M1250 0h-142c-79.2 0-144 64-144 143v216h141c80 0 144-64 144-144h1V0zM464 0c-79 0-143 64-143 144v216h286V144C607 64 543 0 464 0zM285 142C284 64 222 2 144 0H0v360h144v-1c78-2 140-64 141-142v-75zM928 0H783c-77 2-140 64-141 142v75c1 78 64 140 141 142v1h145V0z"/>
</svg>

<svg class="logo" xmlns="http://www.w3.org/2000/svg" width="125" height="36" viewBox="0 0 1250 360">
    <title>DACS logo</title>
    <path d="M1250 0 L1109 0 L1109 0 C1109.09423 0 1108 0 1108 0 C1028.83931 0 964 64 964 143 L964 359 L1104 359 L1104 359 C1105 359 1105 359 1105 359 C1185 359 1249 295 1249 215 L1250 215 L1250 0 L1250 0 Z M464 0 C385 0 321 64 321 144 L321 360 L607 360 L607 144 C607 64 543 0 464 0 L464 0 Z M285 142 C284 64 222 2 144 0 L144 0 L0 0 L0 360 L144 360 L144 359 C222 357 284 295 285 217 L285 217 L285 142 L285 142 L285 142 Z M928 0 L783 0 L783 0 C706 2 643 64 642 142 L642 142 L642 217 L642 217 C643 295 706 357 783 359 L783 360 L928 360 L928 0 L928 0 Z"/>
</svg>
